X: 17673
T: Holly Bush, The
R: jig
M: 6/8
K: Gmajor
BAG g2d|ge/f/g abc'|bag edc|B/c/dB cBA|
BAG g2d|ge/f/g abc'|bag edB|def g3:|

